assets/images/vk.svg

<svg width="65" height="37" viewBox="0 0 65 37" fill="none" xmlns="http://www.w3.org/2000/svg">
<path fill-rule="evenodd" clip-rule="evenodd" d="M63.5034 2.48289C63.9606 1.02237 63.5034 0 61.3697 0H54.2573C52.4284 0 51.6156 0.925 51.1584 1.94737C51.1584 1.94737 47.5514 10.4184 42.4203 15.8711C40.7438 17.4776 40.0326 17.9645 39.1181 17.9645C38.6609 17.9645 38.0004 17.4776 38.0004 16.0171V2.48289C38.0004 0.730262 37.4924 0 35.9683 0H24.7917C23.6741 0 22.9628 0.82763 22.9628 1.55789C22.9628 3.21316 25.503 3.60263 25.8078 8.17895V18.2079C25.8078 20.3987 25.4014 20.7882 24.4869 20.7882C22.0992 20.7882 16.2061 12.3171 12.7515 2.58026C12.0402 0.778949 11.3798 0 9.55091 0H2.43853C0.406422 0 0 0.925 0 1.94737C0 3.74868 2.38773 12.7066 11.2274 24.5368C17.1205 32.6184 25.4014 37 32.9202 37C37.4416 37 38.0004 36.0263 38.0004 34.3711V28.2368C38.0004 26.2895 38.4069 25.9 39.8801 25.9C40.947 25.9 42.7251 26.3868 46.9417 30.2816C51.768 34.9066 52.5808 37 55.2734 37H62.3858C64.4179 37 65.4339 36.0263 64.8243 34.1276C64.1639 32.2289 61.8777 29.4539 58.8296 26.1434C57.1531 24.2447 54.6637 22.2487 53.9525 21.2263C52.8856 19.9118 53.1905 19.3276 53.9525 18.2079C53.9525 18.1592 62.6398 6.475 63.5034 2.48289Z" fill="#020202"/>
</svg>

<svg xmlns="http://www.w3.org/2000/svg" width="65" height="37" fill="none"><path fill="#020202" fill-rule="evenodd" d="M63.503 2.483c.458-1.46 0-2.483-2.133-2.483h-7.113c-1.829 0-2.641.925-3.099 1.947 0 0-3.607 8.471-8.738 13.924-1.676 1.607-2.387 2.094-3.302 2.094-.457 0-1.118-.487-1.118-1.948V2.483C38 .73 37.492 0 35.968 0H24.792c-1.118 0-1.83.828-1.83 1.558 0 1.655 2.541 2.045 2.846 6.62v10.03c0 2.19-.407 2.58-1.321 2.58-2.388 0-8.28-8.47-11.735-18.208C12.04.78 11.38 0 9.55 0H2.439C.406 0 0 .925 0 1.947c0 1.802 2.388 10.76 11.227 22.59C17.12 32.618 25.401 37 32.92 37c4.522 0 5.08-.974 5.08-2.629v-6.134c0-1.947.407-2.337 1.88-2.337 1.067 0 2.845.487 7.062 4.382C51.768 34.907 52.58 37 55.273 37h7.113c2.032 0 3.048-.974 2.438-2.872-.66-1.9-2.946-4.674-5.994-7.985-1.677-1.898-4.166-3.894-4.877-4.917-1.067-1.314-.763-1.898 0-3.018 0-.049 8.687-11.733 9.55-15.725Z" clip-rule="evenodd"/></svg>
